svg/emoji_u1f1fd.svg

<?xml version="1.0" encoding="UTF-8"?>
<svg width="128" height="128" enable-background="new 0 0 128 128" xmlns="http://www.w3.org/2000/svg"><path d="m114.31 117.18-33.17-48.28 33-49.02c0.48-0.73 0.54-1.66 0.12-2.43-0.41-0.77-1.21-1.25-2.08-1.25h-27.85c-0.78 0-1.51 0.38-1.95 1.03l-18.38 26.74-18.38-26.75c-0.44-0.64-1.17-1.03-1.95-1.03h-27.84c-0.87 0-1.68 0.48-2.08 1.25-0.42 0.77-0.36 1.71 0.12 2.43l32.99 49.03-33.17 48.28c-0.49 0.72-0.55 1.66-0.14 2.44 0.41 0.77 1.22 1.26 2.09 1.26h29.26c0.79 0 1.52-0.39 1.96-1.04l17.14-25.48 17.15 25.48c0.44 0.65 1.17 1.04 1.96 1.04h29.25c0.88 0 1.68-0.49 2.1-1.26 0.4-0.78 0.35-1.72-0.15-2.44z" fill="#40C0E7"/></svg>

<svg width="128" height="128" style="enable-background:new 0 0 128 128;" xmlns="http://www.w3.org/2000/svg" xmlns:xlink="http://www.w3.org/1999/xlink">
  <path d="M114.31,117.18L81.14,68.9l33-49.02c0.48-0.73,0.54-1.66,0.12-2.43c-0.41-0.77-1.21-1.25-2.08-1.25 H84.33c-0.78,0-1.51,0.38-1.95,1.03L64,43.97L45.62,17.22c-0.44-0.64-1.17-1.03-1.95-1.03H15.83c-0.87,0-1.68,0.48-2.08,1.25 c-0.42,0.77-0.36,1.71,0.12,2.43L46.86,68.9l-33.17,48.28c-0.49,0.72-0.55,1.66-0.14,2.44c0.41,0.77,1.22,1.26,2.09,1.26h29.26 c0.79,0,1.52-0.39,1.96-1.04L64,94.36l17.15,25.48c0.44,0.65,1.17,1.04,1.96,1.04h29.25c0.88,0,1.68-0.49,2.1-1.26 C114.86,118.84,114.81,117.9,114.31,117.18z" style="fill:#40C0E7;"/>
</svg>
